assets/logo_reduced.svg

<svg width="506" height="132" viewBox="0 0 506 132" fill="none" xmlns="http://www.w3.org/2000/svg">
<path d="M361.756 53.326C365.993 48.9831 379.496 35.2173 391.788 22.7149L414.16 0L435.533 0.0789625C447.325 0.131604 457.011 0.236887 457.116 0.342171C457.195 0.447454 456.826 1.10548 456.274 1.78982C455.721 2.50048 443.324 15.0818 428.689 29.7689C414.081 44.4822 400.974 57.6426 397.104 61.5907L398.289 62.9858C398.921 63.7491 401.184 66.3285 403.29 68.7237C405.395 71.1189 412.502 79.1731 419.082 86.6219C425.662 94.0707 435.48 105.204 440.929 111.363C446.351 117.523 451.825 123.734 453.062 125.182C454.3 126.63 455.8 128.472 456.432 129.262C457.247 130.341 457.458 130.762 457.195 130.893C457.011 130.999 452.641 131.104 447.509 131.078C442.376 131.078 433.006 130.972 415.266 130.63L414.476 129.735C414.029 129.235 405.395 119.549 395.262 108.179C385.155 96.8343 372.942 83.1475 368.151 77.8044C363.361 72.4349 358.229 66.6707 356.755 64.9598C355.281 63.2753 354.07 61.7224 354.07 61.5381C354.07 61.3802 357.518 57.6689 361.756 53.326Z" fill="#118260"/>
<path d="M1.78982 8.31738C1.00019 5.00096 0.289529 1.7635 0.184246 1.1318L0 0L17.1349 0.0789625C28.058 0.131604 34.3487 0.263208 34.5329 0.421133C34.6909 0.579058 34.9804 1.395 35.1646 2.26359C35.3752 3.13218 36.7439 9.58078 38.2178 16.6084C39.6918 23.6361 42.1133 35.112 43.6136 42.1396C45.1139 49.1673 46.5879 56.2213 46.9037 57.8005C47.2196 59.3798 48.2724 64.4334 49.2726 68.9869C50.2728 73.5404 51.5099 79.4626 52.0363 82.1473C52.5627 84.832 53.0628 87.2535 53.1418 87.5431C53.247 87.9642 53.326 87.9905 53.4839 87.6747C53.5892 87.4641 55.7475 78.8572 58.3006 68.5921C59.8342 62.3621 61.7361 54.6489 63.3886 47.947C64.459 43.6062 65.4247 39.6898 66.1179 36.8755C67.498 31.2728 69.3617 23.6712 70.7628 17.9562C71.1521 16.3685 71.5057 14.9263 71.8032 13.7132C73.1719 8.13314 74.5143 2.79001 75.3302 0.0263208L92.544 0.105283C102.02 0.131604 109.837 0.210567 109.916 0.289529C109.995 0.368492 110.442 1.73717 110.863 3.31642C111.311 4.922 115.522 22.2148 120.234 41.7448C121.555 47.23 122.85 52.6053 124.043 57.5603L124.043 57.5626L124.049 57.5867C127.107 70.2852 129.499 80.2169 129.972 82.1473C130.604 84.832 131.183 87.2009 131.262 87.4115C131.341 87.622 131.446 87.7536 131.525 87.6747C131.578 87.5957 132.288 84.6478 133.078 81.0945C133.868 77.5412 134.947 72.5139 135.473 69.9081C135.973 67.3024 137.474 60.2484 138.763 54.2472C140.051 48.2562 143.07 34.0806 145.489 22.7196L145.502 22.6622C147.923 11.2916 150.002 1.63189 150.108 1.21076C150.266 0.605379 150.529 0.368492 151.187 0.210567C151.661 0.105283 158.794 0.0263208 167.058 0.0263208C175.297 0.0263208 182.693 0.131604 184.825 0.421133L184.667 1.34236C184.597 1.78342 183.75 5.3978 182.738 9.71182C182.603 10.2893 182.464 10.8793 182.324 11.4759C181.587 14.569 180.352 19.7015 179.071 25.0257L179.07 25.0327C178.247 28.4504 177.406 31.9468 176.665 35.033C174.77 42.9293 172.638 51.8784 171.928 54.9053C171.217 57.9321 167.506 73.593 163.637 89.6488L162.794 93.1704C159.284 107.835 156.177 120.813 155.714 122.813C155.214 124.998 154.503 127.735 153.503 131.104L115.206 131.078L107.231 99.0453C104.66 88.7468 101.891 77.593 99.688 68.7169L99.678 68.6766L99.6474 68.553C98.1018 62.3271 96.8386 57.2385 96.1237 54.3788C94.4128 47.4301 92.8599 41.3763 92.702 40.9552C92.5704 40.5341 92.3861 40.2182 92.3335 40.2972C92.2545 40.3762 89.2539 52.4574 85.6217 67.1444C81.9894 81.8315 77.4885 100.203 75.5934 107.942C73.6983 115.68 71.8032 123.445 71.3821 125.182C70.961 126.919 70.4345 128.972 69.8028 131.104H30.848L30.5848 129.867C30.4532 129.156 28.8476 122.392 27.0315 114.785C25.2154 107.178 22.9518 97.6503 22.0042 93.5969C21.0567 89.5435 18.3456 78.1202 15.9767 68.1973C13.6079 58.2743 11.2916 48.5093 10.8442 46.4826C10.3967 44.4559 9.37021 40.1393 8.58059 36.8755C7.93124 34.2781 6.84847 29.697 5.88947 25.6395L5.8894 25.6391L5.88931 25.6388L5.88907 25.6378L5.88901 25.6375L5.88883 25.6367L5.88876 25.6364C5.643 24.5966 5.40531 23.591 5.1852 22.6622C4.74107 20.7882 4.22115 18.5887 3.708 16.4179L3.70663 16.4121C2.97341 13.3103 2.25418 10.2677 1.78982 8.31738Z" fill="#E8E8DE"/>
<path d="M200.354 131.104V0.0263208H236.94V130.709L231.36 130.92C228.281 131.025 220.042 131.104 200.354 131.104Z" fill="#E8E8DE"/>
<path d="M257.734 26.8209C257.734 41.5343 257.839 71.0399 257.944 92.3598L258.128 131.13C286.16 131.025 294.372 130.867 294.504 130.762C294.635 130.63 294.741 119.76 294.793 106.599L294.846 82.6737L343.671 131.104C374.282 131.104 383.784 131.025 384.547 130.92C385.311 130.815 385.942 130.604 385.942 130.446C385.942 130.314 384.784 128.946 383.389 127.419C381.994 125.893 378.467 122.181 375.546 119.154C373.249 116.733 367.957 111.249 362.648 105.748C361.263 104.313 359.877 102.876 358.542 101.493C352.12 94.834 341.434 83.7529 334.854 76.8831C328.247 70.0134 322.272 63.7491 321.562 62.9857L320.246 61.5907C322.001 59.8258 324.869 56.9374 328.497 53.2828L328.565 53.2142C334.724 47.0107 343.058 38.6176 351.857 29.7689C365.886 15.6346 378.072 3.2901 378.941 2.31623C379.81 1.34236 380.415 0.447454 380.31 0.342171C380.178 0.236887 370.439 0.131604 358.674 0.105283L337.222 0.0263208L295.767 41.6922C295.53 35.0067 295.451 25.6365 295.425 16.5558L295.372 0.0263208H257.734V26.8209Z" fill="#E8E8DE"/>
<path d="M468.511 117.891C468.405 110.626 468.3 81.1208 468.3 52.3521V0.0526417H505.149V131.13H468.695L468.511 117.891Z" fill="#E8E8DE"/>
</svg>

<svg width="506" height="132" fill="none" xmlns="http://www.w3.org/2000/svg"><path d="M361.756 53.326c4.237-4.343 17.74-18.109 30.032-30.611L414.16 0l21.373.079c11.792.053 21.478.158 21.583.263.079.105-.29.763-.842 1.448-.553.71-12.95 13.292-27.585 27.979-14.608 14.713-27.715 27.874-31.585 31.822l1.185 1.395c.632.763 2.895 3.343 5.001 5.738 2.105 2.395 9.212 10.45 15.792 17.898 6.58 7.449 16.398 18.582 21.847 24.741 5.422 6.16 10.896 12.371 12.133 13.819a190.6 190.6 0 0 1 3.37 4.08c.815 1.079 1.026 1.5.763 1.631-.184.106-4.554.211-9.686.185-5.133 0-14.503-.106-32.243-.448l-.79-.895c-.447-.5-9.081-10.186-19.214-21.556a17774.917 17774.917 0 0 0-27.111-30.375c-4.79-5.37-9.922-11.133-11.396-12.844-1.474-1.685-2.685-3.238-2.685-3.422 0-.158 3.448-3.87 7.686-8.212Z" fill="#118260"/><path d="M1.79 8.317C1 5.001.29 1.764.184 1.132L0 0l17.135.079c10.923.053 17.214.184 17.398.342.158.158.447.974.632 1.843.21.868 1.579 7.317 3.053 14.344a8814.192 8814.192 0 0 0 5.396 25.532c1.5 7.027 2.974 14.081 3.29 15.66.316 1.58 1.368 6.633 2.369 11.187 1 4.553 2.237 10.476 2.763 13.16.527 2.685 1.027 5.106 1.106 5.396.105.421.184.447.342.132.105-.21 2.264-8.818 4.817-19.083 1.533-6.23 3.435-13.943 5.088-20.645l2.729-11.072c1.38-5.602 3.244-13.204 4.645-18.919l1.04-4.243C73.172 8.133 74.514 2.79 75.33.026l17.214.08c9.476.026 17.293.105 17.372.184.079.078.526 1.447.947 3.026.448 1.606 4.659 18.899 9.371 38.429l3.809 15.815v.003l.006.024a16515.7 16515.7 0 0 0 5.923 24.56c.632 2.685 1.211 5.054 1.29 5.264.079.211.184.343.263.264.053-.08.763-3.027 1.553-6.58.79-3.554 1.869-8.581 2.395-11.187.5-2.606 2.001-9.66 3.29-15.66 1.288-5.992 4.307-20.167 6.726-31.528l.013-.058c2.421-11.37 4.5-21.03 4.606-21.451.158-.606.421-.843 1.079-1 .474-.106 7.607-.185 15.871-.185 8.239 0 15.635.106 17.767.395l-.158.921c-.07.441-.917 4.056-1.929 8.37l-.414 1.764c-.737 3.093-1.972 8.225-3.253 13.55l-.001.007c-.823 3.417-1.664 6.914-2.405 10a5692.832 5692.832 0 0 0-4.737 19.872 8244.502 8244.502 0 0 1-8.291 34.744l-.843 3.521c-3.51 14.665-6.617 27.643-7.08 29.643-.5 2.185-1.211 4.922-2.211 8.291l-38.297-.026-7.975-32.033c-2.571-10.298-5.34-21.452-7.543-30.328l-.01-.04-.03-.124c-1.546-6.226-2.81-11.314-3.524-14.174-1.711-6.949-3.264-13.003-3.422-13.424-.132-.42-.316-.737-.368-.658-.08.08-3.08 12.16-6.712 26.847a20329.443 20329.443 0 0 0-14.24 58.038c-.421 1.737-.948 3.79-1.58 5.922H30.849l-.263-1.237c-.132-.711-1.737-7.475-3.553-15.082a6310.024 6310.024 0 0 1-5.028-21.188 7937.586 7937.586 0 0 0-6.027-25.4c-2.37-9.923-4.685-19.688-5.133-21.714-.447-2.027-1.474-6.344-2.263-9.607-.65-2.598-1.733-7.179-2.692-11.236v-.003l-.704-2.975-1.477-6.244-.001-.006c-.734-3.102-1.453-6.144-1.917-8.095ZM200.354 131.104V.026h36.586V130.71l-5.58.211c-3.079.105-11.318.184-31.006.184ZM257.734 26.82c0 14.714.105 44.22.21 65.54l.184 38.77c28.032-.105 36.244-.263 36.376-.368.131-.132.237-11.002.289-24.163l.053-23.925 48.825 48.43c30.611 0 40.113-.079 40.876-.184.764-.105 1.395-.316 1.395-.474 0-.132-1.158-1.5-2.553-3.027-1.395-1.526-4.922-5.238-7.843-8.265-2.297-2.421-7.589-7.905-12.898-13.406l-4.106-4.255c-6.422-6.659-17.108-17.74-23.688-24.61-6.607-6.87-12.582-13.134-13.292-13.897l-1.316-1.395c1.755-1.765 4.623-4.654 8.251-8.308l.068-.069c6.159-6.203 14.493-14.596 23.292-23.445 14.029-14.134 26.215-26.479 27.084-27.453.869-.974 1.474-1.869 1.369-1.974-.132-.105-9.871-.21-21.636-.237L337.222.026l-41.455 41.666c-.237-6.685-.316-16.055-.342-25.136l-.053-16.53h-37.638v26.795ZM468.511 117.891c-.106-7.265-.211-36.77-.211-65.539V.052h36.849V131.13h-36.454l-.184-13.239Z" fill="#E8E8DE"/></svg>
